app/assets/images/heroicons/mini/arrow-turn-left-down.svg

<svg width="20" height="20" viewBox="0 0 20 20" fill="none" xmlns="http://www.w3.org/2000/svg">
<path fill-rule="evenodd" clip-rule="evenodd" d="M16 3.75C16 4.16421 15.6642 4.5 15.25 4.5L7.75 4.5L7.75 15.4393L9.71967 13.4697C10.0126 13.1768 10.4874 13.1768 10.7803 13.4697C11.0732 13.7626 11.0732 14.2374 10.7803 14.5303L7.53033 17.7803C7.23744 18.0732 6.76256 18.0732 6.46967 17.7803L3.21967 14.5303C2.92678 14.2374 2.92678 13.7626 3.21967 13.4697C3.51256 13.1768 3.98744 13.1768 4.28033 13.4697L6.25 15.4393L6.25 3.75C6.25 3.33579 6.58579 3 7 3L15.25 3C15.6642 3 16 3.33579 16 3.75Z" fill="black"/>
</svg>

<svg xmlns="http://www.w3.org/2000/svg" viewBox="0 0 20 20" fill="currentColor" aria-hidden="true" data-slot="icon">
  <path fill-rule="evenodd" d="M16 3.75a.75.75 0 0 1-.75.75h-7.5v10.94l1.97-1.97a.75.75 0 1 1 1.06 1.06l-3.25 3.25a.75.75 0 0 1-1.06 0l-3.25-3.25a.75.75 0 1 1 1.06-1.06l1.97 1.97V3.75A.75.75 0 0 1 7 3h8.25a.75.75 0 0 1 .75.75Z" clip-rule="evenodd"/>
</svg>
